X:72
T:Harvest Home Hornpipe
M:C|
Q:1/2=100
L:1/8
K:D
%%MIDI channel 1
%%MIDI program 72
%%MIDI transpose 8
%%MIDI grace 1/8
%%MIDI ratio 3 1
AF|DAFA DFAF|defe dcBA|eAfA gAfA|edcB AGFE|DAFA DAFA|
defe dcBA|dAFA fgec|d2d2d2::cd|eAAA fAAA|eAAA fAAA|eAfA gAfA|
edcB AGFE|DAFA DAFA|defe dcBA|dAFA fgec|d2d2d2:|

